X: 1
T: Wicked Willie
C: Andrew Rankine
R: reel
Z: 2008 John Chambers <jc:trillian.mit.edu>
M: C|
L: 1/8
K: D
A2 \
|:\
d2ce dfed | dfed cee2 | c2Bd cedc | ABAG FAA2 | d2ce dfed |
dfed cee2 | c2Bd cecB | Acge fdd2 :: f2ef edcB | A2^GA BAGA |
=G2FG AGFG | A2^GA BAGA |  f2ef edcB | A2^GA BAGA | =G2FG BGcG | "D"d2d2 d4 :|
